img/icons/icon-btn-contact.svg

<svg width="24" height="24" viewBox="0 0 24 24" fill="none" xmlns="http://www.w3.org/2000/svg">
<path d="M16 2C17.1046 2 18 2.89543 18 4L4 4L4 15.1765C2.89543 15.1765 2 14.281 2 13.1765V4C2 2.89543 2.89543 2 4 2H16Z" fill="white"/>
<path d="M14 22L11.3333 19.1765H8C6.89543 19.1765 6 18.281 6 17.1765V8C6 6.89543 6.89543 6 8 6H20C21.1046 6 22 6.89543 22 8V17.1765C22 18.281 21.1046 19.1765 20 19.1765H16.6667L14 22ZM15.8046 17.1765L20 17.1765V8L8 8V17.1765H12.1954L14 19.0872L15.8046 17.1765Z" fill="white"/>
</svg>

<svg width="24" height="24" viewBox="0 0 24 24" fill="none" xmlns="http://www.w3.org/2000/svg"><path d="M16 2a2 2 0 012 2H4v11.177a2 2 0 01-2-2V4a2 2 0 012-2h12z" fill="#fff"/><path d="M14 22l-2.667-2.823H8a2 2 0 01-2-2V8a2 2 0 012-2h12a2 2 0 012 2v9.177a2 2 0 01-2 2h-3.333L14 22zm1.805-4.823H20V8H8v9.177h4.195L14 19.087l1.805-1.91z" fill="#fff"/></svg>
